svgs/weawow.svg

<svg xmlns="http://www.w3.org/2000/svg" viewBox="0 0 192 192"><path d="M175.536 108.397a57.707 57.707 0 0 0-5.412-24.415 58.32 58.32 0 0 0-15.261-19.925 36.075 36.075 0 0 0-6.821-21.237 36.721 36.721 0 0 0-18.073-13.309 37.147 37.147 0 0 0-22.529-.378c-8.772-7.553-19.86-11.98-31.476-12.567-11.616-.587-23.102 2.699-32.606 9.329-9.505 6.629-16.49 16.226-19.828 27.244a50.862 50.862 0 0 0 1.409 33.538 58.19 58.19 0 0 0-7.58 39.772c2.318 13.724 9.494 26.196 20.24 35.177 10.746 8.982 24.378 13.901 38.448 13.874h93.077l-30.484-13.013c10.894-4.361 20.228-11.84 26.8-21.474a57.946 57.946 0 0 0 10.096-32.616Z" fill="none" stroke="#000" stroke-width="8" stroke-linecap="round" stroke-linejoin="round"/><path d="m155.724 90.178-7.896 25.081-7.895-25.081-7.896 25.081-7.896-25.081m-56.181 0-7.896 25.081-7.896-25.081-7.896 25.081-7.896-25.081" fill="none" stroke="#000" stroke-width="8" stroke-linecap="round" stroke-linejoin="round"/><path d="M107.44 64.53c-.952 0-1.865.374-2.538 1.039a3.531 3.531 0 0 0-1.051 2.51c0 .941.378 1.844 1.051 2.51a3.612 3.612 0 0 0 2.538 1.039 3.61 3.61 0 0 0 2.537-1.039 3.532 3.532 0 0 0 1.052-2.51c0-.941-.379-1.844-1.052-2.51a3.61 3.61 0 0 0-2.537-1.039Zm-22.779 0c-.951 0-1.865.374-2.538 1.039a3.531 3.531 0 0 0-1.051 2.51c0 .941.378 1.844 1.051 2.51a3.613 3.613 0 0 0 2.538 1.039c.952 0 1.865-.374 2.538-1.039a3.531 3.531 0 0 0 1.051-2.51c0-.941-.378-1.844-1.051-2.51a3.612 3.612 0 0 0-2.538-1.039Z"/><path d="M96.05 77.401a19.257 19.257 0 0 0-13.535 5.545 18.829 18.829 0 0 0-5.606 13.384 18.83 18.83 0 0 0 5.606 13.385 19.256 19.256 0 0 0 13.535 5.544c5.075 0 9.947-1.995 13.535-5.544a18.826 18.826 0 0 0 5.607-13.385c0-5.018-2.018-9.836-5.607-13.384a19.255 19.255 0 0 0-13.535-5.545Z" fill="none" stroke="#000" stroke-width="8" stroke-linecap="round" stroke-linejoin="round"/></svg>

<svg
    xmlns="http://www.w3.org/2000/svg"
    viewBox="0 0 192 192"
    id="vector">
    <path
        id="path"
        d="M 175.536 108.397 C 175.54 99.968 173.693 91.637 170.124 83.982 C 166.555 76.327 161.348 69.528 154.863 64.057 C 154.894 56.447 152.507 49.017 148.042 42.82 C 143.576 36.622 137.253 31.966 129.969 29.511 C 122.686 27.056 114.803 26.923 107.44 29.133 C 98.668 21.58 87.58 17.153 75.964 16.566 C 64.348 15.979 52.862 19.265 43.358 25.895 C 33.853 32.524 26.868 42.121 23.53 53.139 C 20.191 64.157 20.687 75.971 24.939 86.677 C 17.728 98.624 15.041 112.726 17.359 126.449 C 19.677 140.173 26.853 152.645 37.599 161.626 C 48.345 170.608 61.977 175.527 76.047 175.5 L 169.124 175.5 L 138.64 162.487 C 149.534 158.126 158.868 150.647 165.44 141.013 C 172.012 131.378 175.528 120.019 175.536 108.397 Z"
        fill="none"
        stroke="#000000"
        stroke-width="8"
        stroke-linecap="round"
        stroke-linejoin="round"/>
    <path
        id="path_1"
        d="M 155.724 90.178 L 147.828 115.259 L 139.933 90.178 L 132.037 115.259 L 124.141 90.178 M 67.96 90.178 L 60.064 115.259 L 52.168 90.178 L 44.272 115.259 L 36.376 90.178"
        fill="none"
        stroke="#000000"
        stroke-width="8"
        stroke-linecap="round"
        stroke-linejoin="round"/>
    <path
        id="path_2"
        d="M 107.44 64.53 C 106.488 64.53 105.575 64.904 104.902 65.569 C 104.229 66.235 103.851 67.138 103.851 68.079 C 103.851 69.02 104.229 69.923 104.902 70.589 C 105.575 71.254 106.488 71.628 107.44 71.628 C 108.391 71.628 109.305 71.254 109.977 70.589 C 110.65 69.923 111.029 69.02 111.029 68.079 C 111.029 67.138 110.65 66.235 109.977 65.569 C 109.305 64.904 108.391 64.53 107.44 64.53 Z M 84.661 64.53 C 83.71 64.53 82.796 64.904 82.123 65.569 C 81.45 66.235 81.072 67.138 81.072 68.079 C 81.072 69.02 81.45 69.923 82.123 70.589 C 82.796 71.254 83.71 71.628 84.661 71.628 C 85.613 71.628 86.526 71.254 87.199 70.589 C 87.872 69.923 88.25 69.02 88.25 68.079 C 88.25 67.138 87.872 66.235 87.199 65.569 C 86.526 64.904 85.613 64.53 84.661 64.53 Z"
        fill="#000000"
        stroke-width="8"/>
    <path
        id="path_3"
        d="M 96.05 77.401 C 90.976 77.401 86.103 79.397 82.515 82.946 C 78.927 86.494 76.909 91.312 76.909 96.33 C 76.909 101.349 78.927 106.167 82.515 109.715 C 86.103 113.264 90.976 115.259 96.05 115.259 C 101.125 115.259 105.997 113.264 109.585 109.715 C 113.174 106.167 115.192 101.349 115.192 96.33 C 115.192 91.312 113.174 86.494 109.585 82.946 C 105.997 79.397 101.125 77.401 96.05 77.401 Z"
        fill="none"
        stroke="#000000"
        stroke-width="8"
        stroke-linecap="round"
        stroke-linejoin="round"/>
</svg>
